X:141
T:Bad Fire,A. RH.141
T:Buttered Peas,aka. RH.141
T:Stumpie,aka. RH.141
R:reel
S:Rev.R.Harrison’s MS,c1815,Cumbria
N:see #137.
O:England
A:Temple Sowerby,Cumbria
Z:vmp.Simon Wilson. Review PJH, 2008.
M:C|
L:1/8
Q:1/2=70
K:Bb
Bdf2(g/f/e/d/)f2|Bdfd eccd|\
Bdf2(g/f/e/d/) fa|bgfd ecce:|!
|:(Bc/d/) (dc/d/) (dc/d/) (dc/d/)|\
(Bc/d/) (dc/d/) eccd|\
(Bc/d/) (dc/d/) (dc/d/) (dc/d/)|bgfd eccd:|

